X:969
L:1/8
Q:1/4=100
M:4/4
K:Gdor
"^Verse 1:" D2 | G2 GG G2 ^FG |[M:5/4] A2 c2 BA- A3 d/d/ |[M:4/4] c2 B2 G2 F2 | DF- F2- F4 | 
 G2 GG G2 FG | B2 B2 c2 Bc | d2 d2 c2 BB | GG F2 D4 | G4 F2 D2 | CD- D4 c2 | dd d2 c2 BB | 
 G2 F2 D3 B | B2 B2 c2 c2 | c2 B4 Bc | dd dd c2 BB | G2 FF D2 DD | G2 GG F2 D2 | C2 D4 z |]

